storage/app/icons/phosphoricons/thin/rows-thin.svg

<svg xmlns="http://www.w3.org/2000/svg" fill="currentColor" viewBox="0 0 256 256"><path d="M208 140H48a12 12 0 0 0-12 12v40a12 12 0 0 0 12 12h160a12 12 0 0 0 12-12v-40a12 12 0 0 0-12-12m4 52a4 4 0 0 1-4 4H48a4 4 0 0 1-4-4v-40a4 4 0 0 1 4-4h160a4 4 0 0 1 4 4Zm-4-140H48a12 12 0 0 0-12 12v40a12 12 0 0 0 12 12h160a12 12 0 0 0 12-12V64a12 12 0 0 0-12-12m4 52a4 4 0 0 1-4 4H48a4 4 0 0 1-4-4V64a4 4 0 0 1 4-4h160a4 4 0 0 1 4 4Z"/></svg>

<svg xmlns="http://www.w3.org/2000/svg" viewBox="0 0 256 256" fill="currentColor"><path d="M208,140H48a12,12,0,0,0-12,12v40a12,12,0,0,0,12,12H208a12,12,0,0,0,12-12V152A12,12,0,0,0,208,140Zm4,52a4,4,0,0,1-4,4H48a4,4,0,0,1-4-4V152a4,4,0,0,1,4-4H208a4,4,0,0,1,4,4ZM208,52H48A12,12,0,0,0,36,64v40a12,12,0,0,0,12,12H208a12,12,0,0,0,12-12V64A12,12,0,0,0,208,52Zm4,52a4,4,0,0,1-4,4H48a4,4,0,0,1-4-4V64a4,4,0,0,1,4-4H208a4,4,0,0,1,4,4Z"/></svg>
